public/icons/shelves.svg

<svg xmlns="http://www.w3.org/2000/svg" height="24px" viewBox="0 -960 960 960" width="24px" fill="#666666"><path d="M140-58.08v-843.46h60v81.93h560v-81.93h60v843.46h-60V-140H200v81.92h-60ZM200-520h92.31v-155.38h215.38V-520H760v-239.62H200V-520Zm0 320h252.31v-155.38h215.38V-200H760v-260H200v260Zm152.31-320h95.38v-95.39h-95.38V-520Zm160 320h95.38v-95.39h-95.38V-200Zm-160-320h95.38-95.38Zm160 320h95.38-95.38Z"/></svg>

<?xml version="1.0" encoding="UTF-8" standalone="no"?>
<svg
   height="24px"
   viewBox="0 -960 960 960"
   width="24px"
   fill="#666666"
   version="1.1"
   id="svg1"
   sodipodi:docname="shelves.svg"
   inkscape:export-filename="shelves.png"
   inkscape:export-xdpi="96"
   inkscape:export-ydpi="96"
   inkscape:version="1.4 (e7c3feb1, 2024-10-09)"
   xmlns:inkscape="http://www.inkscape.org/namespaces/inkscape"
   xmlns:sodipodi="http://sodipodi.sourceforge.net/DTD/sodipodi-0.dtd"
   xmlns="http://www.w3.org/2000/svg"
   xmlns:svg="http://www.w3.org/2000/svg">
  <defs
     id="defs1" />
  <sodipodi:namedview
     id="namedview1"
     pagecolor="#ffffff"
     bordercolor="#000000"
     borderopacity="0.25"
     inkscape:showpageshadow="2"
     inkscape:pageopacity="0.0"
     inkscape:pagecheckerboard="0"
     inkscape:deskcolor="#d1d1d1"
     inkscape:zoom="42.041667"
     inkscape:cx="13.201189"
     inkscape:cy="11.262636"
     inkscape:window-width="1808"
     inkscape:window-height="1186"
     inkscape:window-x="843"
     inkscape:window-y="45"
     inkscape:window-maximized="0"
     inkscape:current-layer="svg1" />
  <path
     d="m 140,-58.08 v -843.46 h 60 v 81.93 h 560 v -81.93 h 60 V -58.08 H 760 V -140 H 200 v 81.92 z M 200,-520 h 92.31 V -675.38 H 507.69 V -520 H 760 V -759.62 H 200 Z m 0,320 H 452.31 V -355.38 H 667.69 V -200 H 760 V -460 H 200 Z m 152.31,-320 h 95.38 v -95.39 h -95.38 z m 160,320 h 95.38 v -95.39 h -95.38 z m -160,-320 h 95.38 z m 160,320 h 95.38 z"
     id="path1"
     sodipodi:nodetypes="ccccccccccccccccccccccccccccccccccccccccccccccc" />
  <rect
     style="fill:#069af3;stroke-width:40"
     id="rect1"
     width="216.92764"
     height="156.98712"
     x="290.18832"
     y="-675.52032" />
  <rect
     style="fill:#069af3;stroke-width:40"
     id="rect1-8"
     width="216.92764"
     height="156.98712"
     x="452.24976"
     y="-355.52032" />
</svg>
